X:710
T: Brave Lads of Tyrone
C: BB
L: 1/8
Q: 1/8=350
M: 4/4
R: reel
K: Amix
AF |"A"EAcA eAcA |"G"GABd edBG|"A"EAcA "D"FAdf |"A"efec "E"B2 AF |
"A"EAcA eAcA |"G"GABd "Em"edeg|"A"aece "G"dcBG |"E"EAcB "A"A2 :|
cd|"A"eaaf "G"gfed|"A"eaab "G"g2 ed |"A"eaaf "G"gedB|"A"ce "E"dB "A"A2 ed |
"A"eaaf "G"gfed|"A"eaab "G"g2 ed|"A"cdec "Bm"BcdB|"A"Ac "E"B^G "A"A2 :|
%%%%%%%%%%%%%%%%%%%%%%%%%%%%%%%%%%%%%%%%%%%
